X: 122
Q: "Allegro moderato."
M: 4/4
L: 1/8
K: Bb
(Bc) | d2e2 c2d2 | B4 F2F2 | G2F2 G2A2 | B4 c2(Bc) | d2e2
c2d2 | B4 F2F2 | G2F2G2A2 | B4 z2(AB) | c2d2 c2d2 | c4 z2(AB) |
c2A2 f2d2 | c4 z2(Bc) | d2e2 c2d2 | B4 F2F2 | G2F2 G2A2 |


